app/assets/images/heroicon/solid/user-plus.svg

<svg width="24" height="24" viewBox="0 0 24 24" fill="none" xmlns="http://www.w3.org/2000/svg">
<path d="M5.25 6.375C5.25 4.09683 7.09683 2.25 9.375 2.25C11.6532 2.25 13.5 4.09683 13.5 6.375C13.5 8.65317 11.6532 10.5 9.375 10.5C7.09683 10.5 5.25 8.65317 5.25 6.375Z" fill="#0F172A"/>
<path d="M2.25 19.125C2.25 15.19 5.43997 12 9.375 12C13.31 12 16.5 15.19 16.5 19.125V19.1276C16.5 19.1674 16.4996 19.2074 16.499 19.2469C16.4946 19.5054 16.3574 19.7435 16.1359 19.8768C14.1607 21.0661 11.8466 21.75 9.375 21.75C6.90343 21.75 4.5893 21.0661 2.61406 19.8768C2.39256 19.7435 2.25537 19.5054 2.25103 19.2469C2.25034 19.2064 2.25 19.1657 2.25 19.125Z" fill="#0F172A"/>
<path d="M18.75 7.5C18.75 7.08579 18.4142 6.75 18 6.75C17.5858 6.75 17.25 7.08579 17.25 7.5V9.75H15C14.5858 9.75 14.25 10.0858 14.25 10.5C14.25 10.9142 14.5858 11.25 15 11.25H17.25V13.5C17.25 13.9142 17.5858 14.25 18 14.25C18.4142 14.25 18.75 13.9142 18.75 13.5V11.25H21C21.4142 11.25 21.75 10.9142 21.75 10.5C21.75 10.0858 21.4142 9.75 21 9.75H18.75V7.5Z" fill="#0F172A"/>
</svg>

<svg xmlns="http://www.w3.org/2000/svg" viewBox="0 0 24 24" fill="currentColor" aria-hidden="true">
  <path d="M5.25 6.375a4.125 4.125 0 118.25 0 4.125 4.125 0 01-8.25 0zM2.25 19.125a7.125 7.125 0 0114.25 0v.003l-.001.119a.75.75 0 01-.363.63 13.067 13.067 0 01-6.761 1.873c-2.472 0-4.786-.684-6.76-1.873a.75.75 0 01-.364-.63l-.001-.122zM18.75 7.5a.75.75 0 00-1.5 0v2.25H15a.75.75 0 000 1.5h2.25v2.25a.75.75 0 001.5 0v-2.25H21a.75.75 0 000-1.5h-2.25V7.5z"/>
</svg>
